flags/northern_cyprus.svg

<svg width="512" height="512" viewBox="0 0 512 512" fill="none" xmlns="http://www.w3.org/2000/svg">
<rect width="512" height="512" fill="var(--flag-palette-white, #eeeeee)"/>
<path d="M0 464H512V416H0V464ZM0 48V96H512V48H0Z" fill="var(--flag-palette-bright-red, #d80027)"/>
<path fill-rule="evenodd" clip-rule="evenodd" d="M143.248 177.483C156.098 170.625 170.435 167.025 185 167C208.13 166.96 230.367 175.927 247 192C237.35 187.029 226.701 184.305 215.85 184.031C204.999 183.756 194.226 185.939 184.337 190.415C174.448 194.891 165.7 201.546 158.745 209.881C151.791 218.215 146.812 228.014 144.179 238.545C141.546 249.076 141.329 260.065 143.543 270.692C145.756 281.318 150.344 291.307 156.963 299.91C163.582 308.514 172.06 315.509 181.764 320.373C191.468 325.238 202.146 327.845 213 328C224.818 328.165 236.495 325.417 247 320C236.526 330.122 223.728 337.518 209.729 341.54C195.73 345.562 180.958 346.086 166.709 343.068C152.46 340.049 139.17 333.58 128.004 324.227C116.838 314.874 108.139 302.924 102.668 289.425C97.1983 275.926 95.1247 261.291 96.6297 246.804C98.1347 232.316 103.172 218.42 111.3 206.334C119.429 194.247 130.399 184.341 143.248 177.483ZM270 267.079V303L291.035 273.933L325 285L304.013 256L325 227L291.035 238.067L270 209V244.921L236 256L270 267.079Z" fill="var(--flag-palette-bright-red, #d80027)"/>
</svg>

<svg xmlns="http://www.w3.org/2000/svg" width="512" height="512" fill="none"><path fill="var(--flag-palette-white, #eeeeee)" d="M0 0h512v512H0z"/><path fill="var(--flag-palette-bright-red, #d80027)" d="M0 464h512v-48H0zM0 48v48h512V48z"/><path fill="var(--flag-palette-bright-red, #d80027)" fill-rule="evenodd" d="M143.2 177.5A89 89 0 0 1 247 192a72 72 0 1 0 0 128 89 89 0 1 1-103.8-142.5M270 267v36l21-29 34 11-21-29 21-29-34 11-21-29v36l-34 11z" clip-rule="evenodd"/></svg>
